X: 14785
T: Gan Ainm
R: reel
M: 4/4
K: Amajor
eA (3cBA BFFE|A2ce fbaf|eA (3cBA BFFE|AcBc A3c|
eA (3cBA BFFE|A2ce fbaf|eA (3cBA BFFE|AcBc A3G||
F2EC E2A,E|FAEA FB,B,F|FEEC E2AE|FAED CA,A,E|
F2EC E2AE|FAEA FB,B,F|AGFE FGAF|EFAB cAAf||

